src/Pure-Dark/16/symbolic/mimetypes/playlist-symbolic.svg

<svg xmlns="http://www.w3.org/2000/svg" width="16" height="16"><path d="M3 3v1h10V3zm0 4v1h6V7zm0 4v1h4v-1zM10 5v6.09a1.64 1.64 0 0 0-.5-.09c-.83 0-1.5.67-1.5 1.5S8.67 14 9.5 14s1.5-.67 1.5-1.5V8h3v3.09a1.64 1.64 0 0 0-.5-.09c-.83 0-1.5.67-1.5 1.5s.67 1.5 1.5 1.5 1.5-.67 1.5-1.5V5z" fill="#f2f2f2"/></svg>

<?xml version="1.0" encoding="UTF-8" standalone="no"?>
<svg
   width="16"
   height="16"
   version="1.1"
   id="svg1"
   sodipodi:docname="playlist-symbolic.svg"
   inkscape:version="1.4.2 (ebf0e940d0, 2025-05-08)"
   xmlns:inkscape="http://www.inkscape.org/namespaces/inkscape"
   xmlns:sodipodi="http://sodipodi.sourceforge.net/DTD/sodipodi-0.dtd"
   xmlns="http://www.w3.org/2000/svg"
   xmlns:svg="http://www.w3.org/2000/svg">
  <defs
     id="defs1">
    <style
       id="current-color-scheme"
       type="text/css">
        .ColorScheme-Text { color:#f2f2f2; }
        .ColorScheme-NeutralText { color:#f67400; }
        .ColorScheme-PositiveText { color:#37c837; }
        .ColorScheme-NegativeText { color:#f44336; }
        .ColorScheme-Highlight { color:#3daee9; }
     </style>
  </defs>
  <sodipodi:namedview
     id="namedview1"
     pagecolor="#ffffff"
     bordercolor="#000000"
     borderopacity="0.25"
     inkscape:showpageshadow="2"
     inkscape:pageopacity="0.0"
     inkscape:pagecheckerboard="0"
     inkscape:deskcolor="#d1d1d1"
     inkscape:zoom="49.75"
     inkscape:cx="7.9899497"
     inkscape:cy="8"
     inkscape:window-width="1920"
     inkscape:window-height="1011"
     inkscape:window-x="0"
     inkscape:window-y="0"
     inkscape:window-maximized="1"
     inkscape:current-layer="svg1" />
  <path
     id="path1"
     style="fill:currentColor"
     class="ColorScheme-Text"
     d="M 3 3 L 3 4 L 13 4 L 13 3 L 3 3 z M 10 5 L 10 11.089844 A 1.64 1.64 0 0 0 9.5 11 C 8.67 11 8 11.67 8 12.5 C 8 13.33 8.67 14 9.5 14 C 10.33 14 11 13.33 11 12.5 L 11 8 L 14 8 L 14 11.089844 A 1.64 1.64 0 0 0 13.5 11 C 12.67 11 12 11.67 12 12.5 C 12 13.33 12.67 14 13.5 14 C 14.33 14 15 13.33 15 12.5 L 15 5 L 10 5 z M 3 7 L 3 8 L 9 8 L 9 7 L 3 7 z M 3 11 L 3 12 L 7 12 L 7 11 L 3 11 z " />
</svg>
